tools/download-figma-icons/icons/solid/smartphone.svg

<svg width="24" height="24" viewBox="0 0 24 24" fill="none" xmlns="http://www.w3.org/2000/svg">
<path fill-rule="evenodd" clip-rule="evenodd" d="M14.2944 3.36247H12.0444C11.6319 3.36247 11.2944 3.02497 11.2944 2.61247C11.2944 2.19998 11.6319 1.86248 12.0444 1.86248H14.2944C14.7076 1.86248 15.0444 2.19998 15.0444 2.61247C15.0444 3.02497 14.7076 3.36247 14.2944 3.36247ZM14.2944 22.125H9.79442C9.38193 22.125 9.04443 21.7868 9.04443 21.375C9.04443 20.9625 9.38193 20.625 9.79442 20.625H14.2944C14.7151 20.625 15.0444 20.9625 15.0444 21.375C15.0444 21.7868 14.7151 22.125 14.2944 22.125ZM9.79442 1.86248C10.2077 1.86248 10.5444 2.19998 10.5444 2.61247C10.5444 3.02497 10.2077 3.36247 9.79442 3.36247C9.38193 3.36247 9.04443 3.02497 9.04443 2.61247C9.04443 2.19998 9.38193 1.86248 9.79442 1.86248ZM16.3276 0.000244138H7.84443C6.41945 0.000244138 5.24946 1.16198 5.24946 2.59522V21.405C5.24946 22.8375 6.41945 24 7.84443 24H16.3276C17.7601 24 18.9226 22.8375 18.9226 21.405V2.59522C18.9226 1.16198 17.7601 0.000244138 16.3276 0.000244138Z" fill="black"/>
</svg>

<svg width="24" height="24" viewBox="0 0 24 24" fill="none" xmlns="http://www.w3.org/2000/svg"><path fill-rule="evenodd" clip-rule="evenodd" d="M14.294 3.362h-2.25a.752.752 0 0 1-.75-.75c0-.412.338-.75.75-.75h2.25a.75.75 0 0 1 0 1.5Zm0 18.763h-4.5a.753.753 0 0 1-.75-.75c0-.413.338-.75.75-.75h4.5c.421 0 .75.337.75.75 0 .412-.329.75-.75.75Zm-4.5-20.263a.75.75 0 0 1 0 1.5.752.752 0 0 1-.75-.75c0-.412.338-.75.75-.75ZM16.328 0H7.844A2.6 2.6 0 0 0 5.25 2.595v18.81A2.6 2.6 0 0 0 7.844 24h8.484a2.596 2.596 0 0 0 2.595-2.595V2.595A2.595 2.595 0 0 0 16.328 0Z" fill="currentColor"/></svg>
